images/users/triip.svg

<?xml version="1.0" encoding="UTF-8"?>
<svg width="500px" height="500px" viewBox="0 0 500 500" version="1.1" xmlns="http://www.w3.org/2000/svg" xmlns:xlink="http://www.w3.org/1999/xlink">
    <!-- Generator: Sketch 39.1 (31720) - http://www.bohemiancoding.com/sketch -->
    <title>Page 1</title>
    <desc>Created with Sketch.</desc>
    <defs></defs>
    <g id="Page-1" stroke="none" stroke-width="1" fill="none" fill-rule="evenodd">
        <g>
            <g id="Group-3" fill="#48C3CB">
                <path d="M499.999964,250.000071 C499.999964,388.071143 388.071036,500.000071 249.999964,500.000071 C111.928893,500.000071 -3.57142858e-05,388.071143 -3.57142858e-05,250.000071 C-3.57142858e-05,111.929 111.928893,7.14285715e-05 249.999964,7.14285715e-05 C388.071036,7.14285715e-05 499.999964,111.929 499.999964,250.000071 Z" id="Fill-1"></path>
            </g>
            <path d="M367.540643,294.303821 C342.676357,294.755964 323.237071,273.508107 322.784929,249.54775 C322.332786,224.683464 343.580643,205.244179 367.540643,204.791679 C392.404929,204.339893 411.844571,225.587393 412.296357,249.54775 C411.844571,273.96025 391.952786,293.851679 367.540643,294.303821 M377.486357,185.35275 C356.690643,182.188107 336.799214,189.421679 322.784571,202.983821 L322.784571,188.06525 C322.784571,175.407036 302.893143,175.407036 302.893143,188.06525 L302.893143,245.027393 L302.893143,252.260607 L302.893143,350.813821 C302.893143,363.472036 322.784571,363.472036 322.784571,350.813821 L322.784571,295.208107 C327.757429,300.180964 333.634571,304.249536 339.9635,307.414179 C369.348857,321.428464 403.707071,310.578821 421.789929,283.905964 C428.571357,273.508107 431.736,260.85025 432.187786,248.643821 L432.187786,247.28775 C430.831714,216.998464 408.227786,190.325607 377.486357,185.35275" id="Fill-4" fill="#FFFFFF"></path>
            <path d="M167.721393,186.256964 C161.392464,188.065536 155.515321,190.777679 150.542464,194.846607 L150.542464,188.065536 C150.542464,175.407321 130.651036,175.407321 130.651036,188.065536 L130.651036,311.03125 C130.651036,323.689107 150.542464,323.689107 150.542464,311.03125 L150.542464,235.081607 C150.994607,221.067321 159.583893,209.313036 173.146393,205.696607 C185.352464,202.531964 198.462821,206.600893 205.24425,219.259107 C211.121036,230.560893 228.300321,220.615179 222.423179,209.313036 C211.121036,188.065179 190.777464,180.831964 167.721393,186.256964" id="Fill-6" fill="#FFFFFF"></path>
            <path d="M112.567786,178.119286 L87.7035,178.119286 L87.7035,150.5425 C87.7035,137.884286 67.8120714,137.884286 67.8120714,150.5425 L67.8120714,311.030714 C67.8120714,323.688929 87.7035,323.688929 87.7035,311.030714 L87.7035,198.462857 L112.567786,198.462857 C125.678143,198.011071 125.678143,178.119286 112.567786,178.119286" id="Fill-8" fill="#FFFFFF"></path>
            <path d="M232.368857,188.517357 L232.368857,311.483071 C232.368857,324.141286 252.260286,324.141286 252.260286,311.483071 L252.260286,188.517357 C252.260286,175.858786 232.368857,175.858786 232.368857,188.517357" id="Fill-10" fill="#FFFFFF"></path>
            <path d="M242.314536,139.692536 C247.807393,139.692536 252.26025,144.145393 252.26025,149.63825 C252.26025,155.131107 247.807393,159.583964 242.314536,159.583964 C236.821679,159.583964 232.368821,155.131107 232.368821,149.63825 C232.368821,144.145393 236.821679,139.692536 242.314536,139.692536" id="Fill-12" fill="#FFFFFF"></path>
            <path d="M267.178929,188.065107 L267.178929,311.030821 C267.178929,323.689036 287.070357,323.689036 287.070357,311.030821 L287.070357,188.065107 C287.070357,175.406893 267.178929,175.406893 267.178929,188.065107" id="Fill-14" fill="#FFFFFF"></path>
            <path d="M277.124714,139.240571 C282.617571,139.240571 287.070429,143.693429 287.070429,149.186286 C287.070429,154.679143 282.617571,159.132 277.124714,159.132 C271.631857,159.132 267.179,154.679143 267.179,149.186286 C267.179,143.693429 271.631857,139.240571 277.124714,139.240571" id="Fill-16" fill="#FFFFFF"></path>
            <circle id="Oval" stroke="#FFFFFF" fill="#FFFFFF" cx="335.079787" cy="357.420213" r="3.16489352"></circle>
            <path d="M359.142158,333.411164 C359.142158,333.411164 361.597589,333.411164 363.434617,334.671735 C365.271646,335.932305 366.184321,337.703464 366.636464,339.059893 C367.54075,337.251321 368.896821,335.89525 370.252893,334.990964 C371.609321,334.086679 373.418539,333.634893 375.677893,333.634893 C378.842536,333.634893 381.102893,334.538821 382.911464,336.347036 C384.719679,338.155607 385.171821,340.868107 385.171821,344.032393 L385.171821,359.403464 L381.555036,359.403464 L381.555036,345.389179 C381.555036,342.676679 381.102893,340.416321 380.198964,339.059893 C379.294679,337.703464 377.486464,336.799536 375.226107,336.799536 C373.869679,336.799536 370.66975,337.781122 369.625399,340.207104 C368.581049,342.633086 367.793695,344.38061 367.793695,346.647741 L367.54075,360.30775 L363.924321,360.30775 L363.924321,345.389179 C363.924322,343.128464 363.020036,340.415964 362.567893,339.512036 C362.11575,338.608107 361.663607,338.155964 360.759679,337.703464 C359.855393,337.251679 359.013776,337.105609 357.657705,337.105609 C356.753419,337.105609 355.786821,337.251679 354.882536,337.703464 C353.97825,338.155607 353.056043,338.853292 352.622179,339.512036 C352.188314,340.170779 351.265393,341.320964 350.813607,342.676679 C350.361821,344.032393 350.361821,345.389179 350.361821,347.197393 L350.361821,360.30775 L346.745036,360.30775 L346.745036,340.415964 L346.745036,337.703464 L346.745036,334.991321 L350.361821,334.991321 L350.361821,337.251679 L350.361821,339.512036 C351.26575,337.251321 352.170036,336.347036 353.97825,334.990964 C355.334321,334.086679 357.227861,333.411164 359.142158,333.411164 Z" id="Fill-20" fill="#FFFFFF"></path>
            <path d="M414.104786,345.388714 C414.104786,343.128357 413.2005,340.868 411.844429,339.511571 C410.488357,338.1555 408.227643,337.251214 405.967286,337.251214 C404.611214,337.251214 403.706929,337.251214 402.350857,338.1555 C401.446571,338.607643 400.542643,339.059786 399.638357,339.964071 C398.734071,340.868357 398.282286,341.772286 397.830143,342.676214 C397.378,343.5805 396.925857,344.484786 396.925857,345.840857 L414.104786,345.840857 L414.104786,345.388714 Z M417.721572,345.262113 C417.869658,346.709506 417.721571,348.101214 417.721571,348.101214 L396.957852,348.101214 C396.957852,349.457643 397.50431,354.550352 401.52484,356.094165 C405.54537,357.637978 409.007341,356.551238 410.363769,355.647309 C411.719841,354.743024 412.748714,353.978357 413.652643,352.622286 L416.609484,354.992026 C415.253413,356.80024 413.652643,358.268575 411.559929,359.373181 C409.467214,360.477787 407.855073,360.8988 405.594716,360.8988 C403.786502,360.8988 402.319336,360.790236 400.313487,359.967949 C398.307638,359.145663 396.235234,357.313868 395.517942,356.238715 C391.075077,349.579285 392.614487,338.568765 399.568339,335.072879 C406.522191,331.576993 412.368321,334.279681 414.969457,337.278455 C416.630261,339.193149 417.460023,342.70574 417.721572,345.262113 Z" id="Fill-22" fill="#FFFFFF"></path>
        </g>
    </g>
</svg>

<svg width="500" height="500" viewBox="0 0 500 500" xmlns="http://www.w3.org/2000/svg"><title>Page 1</title><g fill="none" fill-rule="evenodd"><path d="M500 250c0 138.07-111.93 250-250 250S0 388.07 0 250 111.93 0 250 0s250 111.93 250 250z" fill="#48C3CB"/><path d="M367.54 294.304c-24.864.452-44.303-20.796-44.755-44.756-.452-24.865 20.796-44.304 44.756-44.756 24.865-.452 44.305 20.795 44.756 44.756-.45 24.412-20.343 44.304-44.755 44.756m9.946-108.95c-20.795-3.166-40.687 4.068-54.7 17.63v-14.92c0-12.657-19.893-12.657-19.893 0v162.751c0 12.658 19.892 12.658 19.892 0v-55.606c4.972 4.973 10.85 9.042 17.178 12.206 29.386 14.014 63.744 3.165 81.827-23.508 6.78-10.398 9.946-23.056 10.398-35.262v-1.356c-1.356-30.29-23.96-56.962-54.702-61.935M167.72 186.257c-6.328 1.81-12.205 4.52-17.178 8.59v-6.78c0-12.66-19.89-12.66-19.89 0V311.03c0 12.66 19.89 12.66 19.89 0v-75.948c.453-14.015 9.042-25.77 22.604-29.385 12.206-3.165 25.317.904 32.098 13.562 5.877 11.3 23.056 1.355 17.18-9.947-11.303-21.248-31.647-28.48-54.703-23.056M112.568 178.12H87.704V150.54c0-12.658-19.892-12.658-19.892 0v160.49c0 12.657 19.892 12.657 19.892 0V198.46h24.864c13.11-.45 13.11-20.343 0-20.343M232.37 188.517v122.966c0 12.658 19.89 12.658 19.89 0V188.517c0-12.658-19.89-12.658-19.89 0M242.315 139.693c5.492 0 9.945 4.452 9.945 9.945s-4.453 9.946-9.945 9.946c-5.493 0-9.946-4.453-9.946-9.946 0-5.493 4.452-9.945 9.945-9.945M267.18 188.065V311.03c0 12.66 19.89 12.66 19.89 0V188.066c0-12.658-19.89-12.658-19.89 0M277.125 139.24c5.493 0 9.945 4.453 9.945 9.946 0 5.493-4.452 9.946-9.945 9.946s-9.946-4.453-9.946-9.946c0-5.493 4.452-9.945 9.945-9.945" fill="#FFF"/><circle stroke="#FFF" fill="#FFF" cx="335.08" cy="357.42" r="3.165"/><path d="M359.142 333.41s2.456 0 4.293 1.262c1.837 1.26 2.75 3.03 3.2 4.388.906-1.81 2.262-3.165 3.618-4.07 1.356-.903 3.166-1.355 5.425-1.355 3.165 0 5.425.904 7.233 2.712 1.81 1.81 2.262 4.52 2.262 7.685v15.37h-3.617V345.39c0-2.713-.452-4.974-1.356-6.33-.905-1.357-2.714-2.26-4.974-2.26-1.356 0-4.556.98-5.6 3.407-1.045 2.426-1.832 4.174-1.832 6.44l-.253 13.66h-3.616V345.39c0-2.262-.904-4.974-1.356-5.878-.452-.904-.904-1.356-1.808-1.81-.905-.45-1.746-.596-3.102-.596-.905 0-1.87.146-2.775.597-.905.453-1.827 1.15-2.26 1.81-.435.658-1.358 1.808-1.81 3.164-.45 1.355-.45 2.712-.45 4.52v13.11h-3.618v-25.316h3.617v4.522c.904-2.26 1.808-3.165 3.616-4.52 1.356-.905 3.25-1.58 5.164-1.58zM414.105 345.39c0-2.262-.905-4.522-2.26-5.878-1.357-1.356-3.617-2.26-5.878-2.26-1.356 0-2.26 0-3.616.904-.903.452-1.807.904-2.712 1.808-.904.904-1.356 1.808-1.808 2.712-.452.904-.904 1.81-.904 3.165h17.18v-.45zm3.617-.128c.148 1.448 0 2.84 0 2.84h-20.764c0 1.356.546 6.448 4.567 7.992 4.02 1.544 7.482.457 8.84-.447 1.355-.904 2.384-1.67 3.288-3.025l2.956 2.37c-1.357 1.808-2.957 3.277-5.05 4.38-2.093 1.106-3.705 1.527-5.965 1.527-1.808 0-3.276-.11-5.282-.932-2.005-.822-4.078-2.654-4.795-3.73-4.443-6.66-2.904-17.67 4.05-21.165 6.954-3.496 12.8-.793 15.4 2.205 1.662 1.915 2.492 5.428 2.754 7.984z" fill="#FFF"/></g></svg>
